src/images/common/choise/pram-icon.svg

<svg width="49" height="52" viewBox="0 0 49 52" fill="none" xmlns="http://www.w3.org/2000/svg">
<path d="M47.413 22.9565C47.5217 22.3043 47.5217 21.5435 47.5217 20.8913C47.5217 9.91304 38.6087 1 27.6304 1V23.0652L41.3261 6.54348M1 9.36957L6.32609 21.9783M20.1304 35.7826H33.7174C41.3261 35.7826 47.5217 30.0217 47.5217 23.0652H6.32609C6.32609 30.0217 12.5217 35.7826 20.1304 35.7826ZM23.5 45.4565C23.5 48.5181 21.0181 51 17.9565 51C14.8949 51 12.413 48.5181 12.413 45.4565C12.413 42.3949 14.8949 39.913 17.9565 39.913C21.0181 39.913 23.5 42.3949 23.5 45.4565ZM40.0217 45.4565C40.0217 48.5181 37.5398 51 34.4783 51C31.4167 51 28.9348 48.5181 28.9348 45.4565C28.9348 42.3949 31.4167 39.913 34.4783 39.913C37.5398 39.913 40.0217 42.3949 40.0217 45.4565Z" stroke="#DE383F" stroke-width="2" stroke-miterlimit="10" stroke-linecap="round" stroke-linejoin="round"/>
</svg>

<svg width="49" height="52" fill="none" xmlns="http://www.w3.org/2000/svg"><path d="M47.413 22.956c.109-.652.109-1.412.109-2.065C47.522 9.913 38.609 1 27.63 1v22.065L41.326 6.543M1 9.37l5.326 12.608M20.13 35.783h13.587c7.61 0 13.805-5.761 13.805-12.718H6.326c0 6.957 6.196 12.718 13.804 12.718zm3.37 9.673a5.543 5.543 0 11-11.087 0 5.543 5.543 0 0111.087 0zm16.522 0a5.543 5.543 0 11-11.087 0 5.543 5.543 0 0111.087 0z" stroke="#DE383F" stroke-width="2" stroke-miterlimit="10" stroke-linecap="round" stroke-linejoin="round"/></svg>
